X:301
T: DAS GRAB IST TIEF UND STILLE
N: B0777
O: Europa, Mitteleuropa, Deutschland
R: Trost - Lied, Tod, Klage, religioes
M: 4/4
L: 1/16
K: F
C4 | F6G2A4A4 | G8F4
F4 | B6AGF4G4 | A8z4
F4 | A6B2c4c4 | B8A4
A4 | G4F4G4E4 | F8z4

@@@ Tune index: 2519
